X: 9422
T: Dann's Bar
R: reel
M: 4/4
K: Dmajor
A2|:"D"dedB A2 FA|dedB AFED|"Bm"B2 BA "D"F2 ED|"Em"FDGF "A"E2 A2|
"D"dedB A2 FA|dedB AFED|"G"G2 GA "D"F2 ED|1 "G"FA"A"E2 "D"D2 A2:|2 "G"FA"A"E2 "D"D2 zf||
|:"A7"eAcA eAcA|eABc "G"dcBf|"A7"eAcA eAcA|eABc "G"dc B2|"A7"eAcA eAcA|
eABc "G"dc B2|1 "G"B2 BA "D"F2 ED|"G"FA"A"E2 "D"D2 zf:|2 "G"G2 GA "D"F2 ED|"G"FA"A"E2 "D"D2||

